X:1
T:Gabriel from God
T:Tim Pratt
T:Traditional
T:Gabriel from God
T:For the Caerleon Primary Schools' Carol Service 2001
C:Tim Pratt
Z:Traditional
%%score { ( 1 2 ) ( 3 4 ) } { ( 5 8 ) | ( 6 7 ) } 9
L:1/8
Q:1/4=62
M:4/4
K:A
V:1 treble nm="I" snm="S A"
V:2 treble 
V:3 bass nm="II" snm="T B"
V:4 bass 
V:5 treble nm="Organ" snm="Org."
V:8 treble 
V:6 bass 
V:7 bass 
V:9 bass nm="Ped." snm=" "
V:1
"^Unison - all voices" z2 | z4 z2!mf! z C | FF FF E>E EE | DD CB, C3 C | F>F FF GG GG | %5
w: |The|an- gel Ga- bri- el from God was|sent to Ga- li- lee, un-|to a vir- gin fair and free, whose|
 A>G FA G3"^S.A only" C | c>B Ac B>A GB | A>G FA C3 z | z8 | z6 z c || ^dd GG cc FF | %11
w: name was called Ma- ry; and|when the an- gel to her came, he|fell down on his knee,||Then|sing we all, both great and small: Now-|
 B>^A GF C3 C | ^D^E FG ^AB cc/A/ | G2 B2 ^A2 G2 |[M:2/4] F3 z ||[M:4/4] z8 | %16
w: ell now- ell, now- ell; we|may re- joice to hear the voice of the|an- gel Ga- bri-|el.||
 z4 z2"^Alto solo"!f! z C | FF FF GG GG | A>G FA G3 C | c>B Ac B>A GB | A>G FA C3 C | DD DD CC CC | %22
w: “the|pow- er of the Ho- ly Ghost will|come to you thro’ me. You|are the one to bear a child, as|God says it will be: his|own dear son from heav’n shall come and|
 FF AB G2"^Tutti" z c || ^dd GG cc FF | B>^A GF C3 C | ^D^E FG ^AB cc/A/ | G2 B2 ^A2 G2 | F3 z || %28
w: set all peo- ple free.” Then|sing we all, both great and small: Now-|ell now- ell, now- ell; we|may re- joice to hear the voice of the|an- gel Ga- bri-|el.|
 z8 | z4 z2 z!ff! =D ||[K:Bb] G>G GG F>F FF | EE DC D3 D | G>G GG AA AA | B>A GB A3 D | %34
w: |Good|peo- ple all, both great and small, now|lis- ten to my voice, with|one ac- cord let’s praise the Lord, and|in our heart re- joice: Both|
 d>c Bd c>B Ac | B>A GB D3 D | EE EE DD DD | GG Bc A2-!ff! Ad || %38
w: girl and boy, shout out your joy, the|mess- age sky- ward fling; Join|one and all, pass on the call, we|praise the new- born King. * Then|
 =ee (A/=B/)(c/e/) dd (G/A/)(B/d/) | =e>d ce d3 d | g^f =ed ge d=B/d/ |"^molto rit" =e2 e2 d3 d | %42
w: sing we all, * both * great and small; * now- *|ell, now- ell, now- ell; We|may re- joice to hear the voice of the|an- gel Ga- bri-|
 g4- g z z2 |] %43
w: el. *|
V:2
 x2 | x8 | x8 | x8 | x8 | x8 | A>G FA G>F EG | F>E DF C3 x | x8 | x7 c || FF F^E E(G/F/) E^D | %11
 G>F ^DD C3 C | ^D^E FG FF FF/F/ | F2 F2 C^D F^E |[M:2/4] F3 x ||[M:4/4] x8 | x8 | x8 | x8 | x8 | %20
 x8 | x8 | x8 || BB GG ^EG/F/ E^D | ^D>C C^A, C3 C | ^D^E FG FF FF/F/ | F2 F2 C^D (F^E) | C3 x || %28
 x8 | x8 ||[K:Bb] x8 | x8 | x8 | x8 | B>A GB A>G FA | G>F EG D3 D | DD CC CC B,B, | %37
 DD GG G2- ^FF || GG G^F FA F=E | G>=B AB A3 D | =E^F GA =Bc dd/B/ | A2 c2 =B2 A2 | G4- G x3 |] %43
V:3
 z2 | z8 | z8 | z8 | z8 | z8 | z8 | z4 z2"^T.B." z C, | D,D, D,D, C,C, C,C, | F,F, A,B, G,2 z C || %10
w: |||||||and|look- ing up in- to her face, he|said, “All hail Ma- ry”. Then|
 ^A,G, G,B, G,F, A,A, | ^A,G, F,F, (F,2 ^E,)F, | F,F, F,F, CC CC/C/ | B,2 B,2 C3 B, | %14
w: sing we all, both great and small: Now-|ell * now- now- ell; * we|may re- joice to hear the voice of the|an- gel Ga- bri-|
[M:2/4] ^A,3"^Bass Solo"!mp! C, ||[M:4/4] F,>F, F,F, E,>E, E,E, | D,D, C,B,, C,3 z | z4 z4 | %18
w: el. “Ma-|ry,” he said, “be not a- fraid, I|am just as you see;”||
 z4 z3 C | A,>G, F,A, E,>F, E,G, | F,>E, C,F, C,3 C | CC B,B, B,B, A,A, | F,E, F,D, C,2 z B, || %23
w: “You|are the one to bear a child, as|God says it will be: his|own dear son from heav’n shall come and|set all peo- ple free.” *|
 ^A,G, G,B, G,F, A,A, | ^A,G, F,F, (F,2 ^E,)F, | F,F, F,F, CB, CC/C/ | ^D2 C2 C2 C2 | ^A,3 z || %28
w: ||may re- joice to hear the voice of the|an- gel Ga- bri-|el.|
 z8 | z4 z2!ff! z =D, ||[K:Bb] G,>G, G,G, F,>F, F,F, | E,E, D,C, D,3 D, | G,>G, G,G, A,A, A,A, | %33
w: |||||
 B,>A, G,B, A,3!f! D | G, !>!G,2 G, G, !>!G,2 G, | G,>G, G,B, D3 D | G,G, G,G, G,G, G,G, | %37
w: * * * * * Both|girl and boy, shout out, the|mess- age sky- ward fling; *||
 G,G, B,C!<(! A,2-!<)! A,D || =EE A,A, DD G,G, | C>=B, A,G, (G,2 ^F,)D | G,G, CC DD DD/C/ | %41
w: ||||
 C2 C2 D3 C | =B,4- B, z z2 |] %43
w: ||
V:4
 x2 | x8 | x8 | x8 | x8 | x8 | x8 | x8 | x8 | x7 C, || B,,B,, C,C, ^A,,A,, ^D,D, | %11
 G,,^A,, B,,^B,, C,3 A,, | B,,C,^D,^E, F,G, ^A,A,/F,/ | B,2 B,,2 C,2 C,2 |[M:2/4] F,3 x || %15
[M:4/4] x8 | x8 | x8 | x8 | x8 | x8 | x8 | x7 C, || B,,B,,C,C, ^A,,A,,^D,D, | %24
 G,,^A,,B,,B,, C,3 A,, | B,,C,^D,^E, F,G, ^A,A,/F,/ | B,2 B,,2 C,2 C,2 | F,3 x || x8 | x8 || %30
[K:Bb] x8 | x8 | x8 | x8 | x8 | x8 | C,C,C,C, G,G,G,F, | E,E,C,C, D,2- D,D, || %38
 C,C,D,D, =B,,B,,=E,E, | A,,>=B,, C,^C, D,3 D, | =E,^F,G,A, =B,C DD/B,/ | C2 C,2 D,2 D,2 | %42
 G,4- G, z z2 |] %43
V:5
!mf!"^Gt." z D | c(B/A/) FD C3"^Sw." C | (F4 E4) | (D2 CA,) z (3(c/f/g/) !>!c' z | %4
 z({/^e} f z2 =e/d/c/B/) c z | (a4 g)(3(A/c/)g/ .c' z | %6
 ([ac']>[gb] [fa])[ac'] ([gb]>[fa] [eg])[gb] | [fa]>[eg] [df][fa] c3 C | D4 C4 | %9
 F2 ([FA][GB]) (GA) Bc || (^d/^e/d/B/) G(^A/B/) (c/d/c/A/) F(G/A/) | %11
 (B/c/B/^A/) (G/F/^E/^d/) [Gc]3 C | (^D^E FG) (^AB c)(c/A/) | G2 B2 (^A/^d/c/A/) (G/B/G/^E/) | %14
[M:2/4] F(3(F/^A/c/) f!pp! z ||[M:4/4] (A,/C/F/C/) (A,/C/F/C/) (G,/B,/E/B,/) (G,/B,/E/B,/) | %16
 (F,/A,/D/A,/) (G,/C/D/B,/) (G,/C/F/C/) (^E/C/G,/C/) | %17
 (A,/C/F/C/) (A,/C/F/C/) (B,/D/G/D/) (B,/C/G/C/) | %18
 (C/A/F/E/) (D/A,/D/F/) (G/F/C/F/) (^E/C/B,/B,/) | (c/A/)F (Fc) (A/G/)F (DB) | (A/F/)D (DA) C3 C | %21
 D4 C4 |"^cresc." F2- [FA][GB] (ga)!f! (bc') || (^d'/b/f/^d/) g(^a/b/) (c'/a/^e/c/) d(f/a/) | %24
 ([b^d']>[^ac']) ([gb][fa]) [cg]3 C | (^D^E FG) (^AB c)(c/A/) | G2 B2 (c/c'/)(b/^a/) (g/f/^e/g/) | %27
 f3!ff!"^Reeds" c || [FB^d]3 (3[c^e]/[ce]/[ce]/ [df][eg] [f^a] (3[dfc']/[dfc']/[dfc']/ | %29
 [^db]3/2[db]/4[db]/4 ^b2 [fc'](3[Fcf]/[Fcf]/[Fcf]/ [=A=df]2 ||[K:Bb] [Bdg]4 [Acf]4 | %31
 [ce]2 (dc) A(3d/g/a/ d' x | [Bdg]4 [cea]2 [cda][cd] | ([dgb]>[cfa] [Bdg])[egb] (a3 d | %34
 [Bdg]3/2[Bdg]/4[Bdg]/4 [Bdg][GB] [Acf]3/2[Acf]/4[Acf]/4 [Acf][FA] | %35
 [GBe]3/2[GBe]/4[GBe]/4 [GBe][GB] D3 D | E/F/E/F/ E/F/E/F/) (D/E/D/E/ D/E/D/E/) | %37
 (G/A/G/A/) ([GB]/A/[GB]/c/) (AB)!ff! (cd) || [=EG=e]2 (A/=B/c/e/) d2 (G/A/B/d/) | %39
 [Gc=e]>[G=Bd] ([=EAc][GBe]) [DAd]3 D | (g^f =e)d (ge d)(=B/d/) |"^molto rit" [c=e]4 [Ad]3 [Ad] | %42
 [Gdg]4- [Gdg] z z2 |] %43
V:6
!p!"^Sw." z2 | [F,G,D]2 [D,F,B,]2 F,^D, ^E,C, | F,8 | [B,,F,]2 [D,G,]2 [G,C]4 | F4 G4 | %5
 [CFA]>[B,EG] [A,CF][DFA] G3 x | F4 E4 | x2 A,F,- F,2 ^E,2 | %8
 B,,/D,/F,/D,/ B,,/F,,/B,,/D,/ F,/C,/F,/A,/ F,/C,/A,,/F,,/ | %9
 B,,/D,/B,,/D,/ F,/A,/F,/D,/ C,/D,/C,/D,/ C,/=D,/C, || ^A,G,- G,B, G,F, A,2 | %11
 ^A,G, F,2- F,2 ^E,F, | F,4 x4 | B,4 C3 B, |[M:2/4] [^A,C]3 C ||[M:4/4] F, z F, z F, z F, z | %16
 B,, z B,, z C, z C, z | F, z F, z F, z ^E,C, | C, z D,B,, C, z C, z | %19
 [A,C] z [A,C] z [F,B,E] z [F,B,E] z | F,2 A,/G,/F,- F,2 ^E,2 | [B,,F,]4 F,3 E, | [D,A,]4 F2 ^E2 || %23
 [^DF-]2 F^E- EF ED | ^D>C C^A, G,3 F, | F,4 x4 | [^DF]4 [F^A]2 G2 | F3!ff! C || %28
 ^D^EFE [DF][EG][F^A][Cc] | B^A g/f/^e/^d/ [Gc](3[G,C]/[G,C]/[G,C]/ [=DF]2 || %30
[K:Bb][K:bass] [D,B,]4 F,4 | B,4 G,2- ^F, z | [G,,G,]4- [G,,G,]2 ^F,D, | E,3 C, D,4 | %34
 G, G,2 G, G, G,2 G, | G,2 B,G,- G,2 ^F,2 | G,4 G,3 F, |"^cresc." [E,G,]4 [D,A,]2- [D,A,]2 || %38
 =B,A,- A,C A,G, B,2 | =B,A, G,2- G,2 ^F,G, | =E^F GA =Bc x2 | C4 D3 C | =B,4- B, z z2 |] %43
V:7
 x2 | x4 [C,G,]3 C, | x8 | x4 F,2 ^E,2 | [A,C]4 [B,D]2 [B,C]2 | x4 F2 ^EC | x8 | D4 [C,G,]4 | x8 | %9
 x8 || B,,2 C,2 ^A,,2 ^D,2 | x7 ^A,, | B,,C, ^D,^E, F,G, ^A,2 | B,2 B,,2 [C,G,]4 |[M:2/4] F,3 x || %15
[M:4/4] x8 | x8 | x8 | x8 | x8 | x2 B,,2 C,4 | x8 | x4 [G,C]4 || ^A,G,- G,B, G,F, A,2 | %24
 ^A,G, F,2- F,2 ^E,^A,, | B,,C, ^D,^E, F,G, ^A,2 | B,4 C^D F^E | [^A,C]3 x || x8 | %29
 [^DG]2 ^d2 x2 [=A,=C]2 ||[K:Bb][K:bass] x8 | x8 | x8 | x8 | x8 | x8 | x8 | x8 || %38
 C,2 D,2 =B,,2 =E,2 | A,,=B,, C,^C, D,3 B,, | C4 [DG]4 | C2 C,2 D,4 | G,4- G, x3 |] %43
V:8
 x2 | x8 | [A,C]4 [G,B,]4 | A,4 x4 | x8 | x8 | x8 | x8 | (C2 B,2) (B,2 A,2) | %9
 [A,C]2 x2 F2 [^EG]2 || F2 F^E EG E^D | [^DG]>[CF] [B,D][^A,D] C3 x | B,4 [CF]4 | [^DF]4 CD F^E | %14
[M:2/4] x4 ||[M:4/4] x8 | x8 | x8 | x8 | x8 | D2 x2 G,4 | (C2 B,2-) (B,2 A,2) | C4 x4 || x8 | x8 | %25
 B,4 [CF]4 | x8 | x4 || x6 ^d x | x2 (^b/^a/g/f/) x4 ||[K:Bb] x8 | G4 [A,D]3 D | x8 | x4 g2 ^f2 | %34
 x8 | z4 A,4 | D2 C2 C2 B,2 | [B,D]4 G2 ^F2 || x2 G^F FA F=E | x8 | x8 | [=EG]4 (G2 ^F2) | x8 |] %43
V:9
 z2 | B,,2 G,,2 C,,2 z2 | F,8 | z2 B,,2 C,4 | F,6 (^E,C,) | D,3 B,, C,4 | F,,8 | F,,2 B,,2 C,4 | %8
 B,,4 F,3 E, | D,2 B,,2 C,2 C,,2 || z8 | G,,^A,, B,,^B,, C,3 z | z8 | B,,4 C,4 |[M:2/4] F,3 z || %15
[M:4/4] z8 | z2 B,, z C, z C,, z | z8 | z8 | F,8 | F,,2 B,,2 C,4 | z8 | D,4 C,4 || %23
 B,,2 C,2 ^A,,2 ^D,2 | G,,^A,, B,,B,, C,3 z | z8 | B,2 B,,2 C,4 | F,3 z || B,,C,^D,C, F,,4 | %29
 B,,2 ^B,,2 C,2 =D,2 ||[K:Bb] G,,4 D,4 | (E,2 C,2) D,3 z | z8 | z8 | %34
 G, !>!G,,2 G,, G, !>!G,,2 G,, | G,!>!G,, C,2 D,4 | C,4 G,,4 | C,4 D,2- D,2 || C,2 D,2 =B,,2 =E,2 | %39
 A,,=B,, C,^C, D,3 D, | C,D, =E,^F, G,A, =B,2 | C2 C,2 D,4 | G,4 !>!G,, z z2 |] %43

